X: 591
T: Nao wugeng
%%abc-version 2.0
%%abcx-abcm2ps-target-version 5.9.1 (29 Sep 2008)
%%abc-creator hum2abc beta
%%abcx-conversion-date 2013/10/02 07:52:30
%%abc-edited-by Helmut Schaffrath
%%humdrum-veritas 1198907889
%%humdrum-veritas-data 1709995029
%%continueall 1
%%barnumbers 0
L: 1/8
M: 2/4
K: A
A B e c [I:setbarnb 1]| 
B2B2 | 
c B A F | 
c B A F | 
A B A F | 
E4 | 
AA2B | 
c e c B | 
A B A F | 
E4 | 
E F E F | 
A B c B | 
A2F E | 
D F E A, | 
B,4 |]  



